dist/img/svg/dzen.svg

<svg width="19" height="18" viewBox="0 0 19 18" fill="none" xmlns="http://www.w3.org/2000/svg">
<path d="M9.81416 0.896118C9.85464 4.18 10.0807 6.02612 11.312 7.25462C12.5434 8.4865 14.3887 8.70925 17.6712 8.75312C17.543 4.47025 14.0952 1.02099 9.81416 0.896118Z" fill="currentColor"/>
<path d="M7.83362 7.25462C9.06498 6.02612 9.28763 4.18 9.32811 0.896118C5.04706 1.02099 1.59928 4.47025 1.47445 8.75312C4.75693 8.71262 6.60227 8.4865 7.83362 7.25462Z" fill="currentColor"/>
<path d="M1.47456 9.23911C1.59939 13.522 5.04717 16.9712 9.32823 17.0961C9.28774 13.8122 9.06171 11.9661 7.83036 10.7376C6.59901 9.50574 4.75367 9.28299 1.47119 9.23911H1.47456Z" fill="currentColor"/>
<path d="M17.6679 9.23911C14.3854 9.27961 12.5401 9.50574 11.3088 10.7376C10.0774 11.9695 9.85475 13.8156 9.81089 17.0961C14.0919 16.9712 17.5397 13.522 17.6646 9.23911H17.6679Z" fill="currentColor"/>
</svg>

<svg width="19" height="18" viewBox="0 0 19 18" fill="none" xmlns="http://www.w3.org/2000/svg"><path d="M9.814.896c.04 3.284.267 5.13 1.498 6.359 1.231 1.231 3.077 1.454 6.36 1.498-.129-4.283-3.577-7.732-7.858-7.857zm-1.98 6.359C9.065 6.026 9.288 4.18 9.328.896a8.1 8.1 0 00-7.854 7.857c3.283-.04 5.128-.267 6.36-1.498zM1.475 9.24a8.1 8.1 0 007.853 7.856c-.04-3.284-.266-5.13-1.498-6.358C6.6 9.506 4.754 9.283 1.471 9.239h.004zm16.193 0c-3.283.04-5.128.266-6.36 1.498-1.23 1.232-1.453 3.078-1.497 6.358a8.1 8.1 0 007.854-7.857h.003z" fill="currentColor"/></svg>
